svg/direction.svg

<svg xmlns="http://www.w3.org/2000/svg" viewBox="0 0 56 64" enable-background="new 0 0 56 64"><style type="text/css">.st0{fill:#343434;}</style><title>direction</title><desc>Created with Sketch.</desc><path class="st0" d="M48 8h-22v-6c0-1.1-.9-2-2-2s-2 .9-2 2v6h-20c-1.1 0-2 .9-2 2v15c0 1.1.9 2 2 2h20v35c0 1.1.9 2 2 2s2-.9 2-2v-35h22l8-9-8-10zm-1.8 15h-42.2v-11h42.1l4.7 5.9-4.6 5.1z"/></svg>

<?xml version="1.0" encoding="utf-8"?>
<!-- Generator: Adobe Illustrator 21.0.0, SVG Export Plug-In . SVG Version: 6.00 Build 0)  -->
<svg version="1.1" id="Layer_1" xmlns="http://www.w3.org/2000/svg" xmlns:xlink="http://www.w3.org/1999/xlink" x="0px" y="0px"
	 viewBox="0 0 56 64" style="enable-background:new 0 0 56 64;" xml:space="preserve">
<style type="text/css">
	.st0{fill:#343434;}
</style>
<title>direction</title>
<desc>Created with Sketch.</desc>
<path class="st0" d="M48,8H26V2c0-1.1-0.9-2-2-2c-1.1,0-2,0.9-2,2v6H2c-1.1,0-2,0.9-2,2v15c0,1.1,0.9,2,2,2h20v35c0,1.1,0.9,2,2,2
	c1.1,0,2-0.9,2-2V27h22l8-9L48,8z M46.2,23H4V12h42.1l4.7,5.9L46.2,23z"/>
</svg>
